dist/intermediate-svg/noauto.svg

<?xml version="1.0" encoding="utf-8"?><svg xmlns="http://www.w3.org/2000/svg" viewBox="0 0 115 115" width="24" height="24"><circle cx="57.5" cy="57.5" r="57" fill="#fff" stroke="#ccc"/><path d="M80.87 53.12l-3.13-13.57a8.25 8.25 0 00-7.72-6H45a8.25 8.25 0 00-7.72 6l-3.15 13.57a4.32 4.32 0 00-1.67 3.34v22.95a2 2 0 002.08 2.09h4.18a2 2 0 002.08-2.09v-6.26h33.4v6.26a2 2 0 002.08 2.09h4.18a2 2 0 002.08-2.09V56.46a3.77 3.77 0 00-1.67-3.34zM41.43 40.6A4.27 4.27 0 0145 37.67h25a4 4 0 013.55 2.93l2.3 9.6H39.13zm3.55 19a1 1 0 01-1 1h-6.31a1 1 0 01-1-1v-2.1a1 1 0 011-1h6.26a1 1 0 011 1zm33.39 0a1 1 0 01-1 1h-6.3a1 1 0 01-1-1v-2.1a1 1 0 011-1h6.26a1 1 0 011 1z" fill="#ddd"/></svg>

<?xml version="1.0" encoding="utf-8"?><svg xmlns="http://www.w3.org/2000/svg" viewBox="0 0 115 115" width="24" height="24"><circle cx="57.5" cy="57.5" r="57" fill="#fff" stroke="#ccc"/><path d="M80.87,53.12,77.74,39.55a8.25,8.25,0,0,0-7.72-6H45a8.25,8.25,0,0,0-7.72,6L34.13,53.12a4.32,4.32,0,0,0-1.67,3.34V79.41a2,2,0,0,0,2.08,2.09h4.18a2,2,0,0,0,2.08-2.09V73.15H74.2v6.26a2,2,0,0,0,2.08,2.09h4.18a2,2,0,0,0,2.08-2.09V56.46A3.77,3.77,0,0,0,80.87,53.12ZM41.43,40.6A4.27,4.27,0,0,1,45,37.67H70a4,4,0,0,1,3.55,2.93l2.3,9.6H39.13Zm3.55,19a1,1,0,0,1-1,1H37.67a1,1,0,0,1-1-1V57.5a1,1,0,0,1,1-1h6.26a1,1,0,0,1,1,1Zm33.39,0a1,1,0,0,1-1,1H71.07a1,1,0,0,1-1-1V57.5a1,1,0,0,1,1-1h6.26a1,1,0,0,1,1,1Z" fill="#ddd"/></svg>
